; generated by PrusaSlicer 2.8.0+win64 on 2024-09-28 at 18:08:34 UTC


;
;
; 

; external perimeters extrusion width = 0.45mm
; perimeters extrusion width = 0.45mm
; infill extrusion width = 0.45mm
; solid infill extrusion width = 0.45mm
; top infill extrusion width = 0.40mm
; first layer extrusion width = 0.42mm

M73 P0 R127
M73 Q0 S133
M201 X1000 Y1000 Z200 E5000 ; sets maximum accelerations, mm/sec^2
M203 X200 Y200 Z12 E120 ; sets maximum feedrates, mm / sec
M204 S1250 T1250 ; sets acceleration (S) and retract acceleration (R), mm/sec^2
M205 X8.00 Y8.00 Z0.40 E4.50 ; sets the jerk limits, mm/sec
M205 S0 T0 ; sets the minimum extruding and travel feed rate, mm/sec

; printing object Light_Tracker id:0 copy 0
; stop printing object Light_Tracker id:0 copy 0

;TYPE:Custom
M862.3 P "MK3S" ; printer model check
M862.1 P0.4 ; nozzle diameter check
M115 U3.14.0 ; tell printer latest fw version
G90 ; use absolute coordinates
M83 ; extruder relative mode
M104 S215 ; set extruder temp
M140 S60 ; set bed temp
M190 S60 ; wait for bed temp
M109 S215 ; wait for extruder temp
G28 W ; home all without mesh bed level
G80 X85.1262 Y65.1262 W79.7476 H79.7476 ; mesh bed levelling

G1 Z0.2 F720
G1 Y-3 F1000 ; go outside print area
G92 E0
G1 X60 E9 F1000 ; intro line
G1 X100 E12.5 F1000 ; intro line

G92 E0
M221 S95

; Don't change E values below. Excessive value can damage the printer.

M907 E538 ; set extruder motor current
G21 ; set units to millimeters
G90 ; use absolute coordinates
M83 ; use relative distances for extrusion

M900 K0.05 ; Filament gcode LA 1.5
M900 K30 ; Filament gcode LA 1.0




M107
;LAYER_CHANGE
;Z:0.2
;HEIGHT:0.2
G1 E-.8 F2100
G1 Z.6 F720
G1 X95.49 Y78.461 F10800
G1 Z.2 F720
G1 E.8 F2100
M204 S800
;TYPE:Skirt/Brim
;WIDTH:0.42
G1 F1200
G1 X98.332 Y75.612 E.12617
G1 X101.806 Y72.799 E.14016
G1 X105.154 Y70.63 E.12508
G1 X108.965 Y68.698 E.13397
G1 X112.751 Y67.249 E.1271
G1 X116.721 Y66.185 E.12887
G1 X120.747 Y65.542 E.12783
G1 X125.115 Y65.314 E.13714
G1 X129.253 Y65.542 E.12994
G1 X133.28 Y66.185 E.12786
G1 X137.293 Y67.264 E.13029
G1 X141.213 Y68.776 E.13173
G1 X144.868 Y70.643 E.12869
G1 X148.271 Y72.851 E.12719
G1 X151.539 Y75.49 E.1317
G1 X154.388 Y78.332 E.12617
G1 X157.201 Y81.806 E.14016
G1 X159.389 Y85.188 E.1263
G1 X161.301 Y88.963 E.13268
G1 X162.736 Y92.706 E.12569
G1 X163.815 Y96.721 E.13035
G1 X164.458 Y100.747 E.12783
G1 X164.686 Y105.115 E.13714
G1 X164.458 Y109.253 E.12994
G1 X163.815 Y113.279 E.12783
G1 X162.736 Y117.293 E.13032
G1 X161.224 Y121.213 E.13173
G1 X159.389 Y124.812 E.12667
G1 X157.149 Y128.27 E.12918
G1 X154.51 Y131.539 E.13173
G1 X151.668 Y134.388 E.12617
G1 X148.194 Y137.201 E.14016
G1 X144.812 Y139.389 E.1263
G1 X141.037 Y141.301 E.13268
G1 X137.294 Y142.736 E.12569
G1 X133.279 Y143.815 E.13035
G1 X129.253 Y144.458 E.12783
G1 X124.885 Y144.686 E.13714
G1 X120.747 Y144.458 E.12994
G1 X116.721 Y143.815 E.12783
G1 X112.707 Y142.736 E.13032
G1 X108.787 Y141.224 E.13173
G1 X105.132 Y139.357 E.12869
G1 X101.72 Y137.143 E.12753
G1 X98.461 Y134.51 E.13137
G1 X95.612 Y131.668 E.12617
G1 X92.799 Y128.194 E.14016
G1 X90.61 Y124.812 E.12631
G1 X88.699 Y121.037 E.13266
G1 X87.265 Y117.297 E.12559
M73 Q0 S132
G1 X86.185 Y113.28 E.13042
G1 X85.542 Y109.253 E.12786
G1 X85.314 Y104.885 E.13714
G1 X85.542 Y100.747 E.12994
G1 X86.185 Y96.721 E.12783
G1 X87.249 Y92.75 E.1289
G1 X88.776 Y88.787 E.13316
G1 X90.63 Y85.154 E.12789
G1 X92.851 Y81.729 E.12799
G1 X95.452 Y78.507 E.12983
M204 S1000
;WIPE_START
G1 F8640
G1 X95.49 Y78.461 E-.01378
G1 X97.894 Y76.05 E-.78622
;WIPE_END
G1 Z.6 F720
; printing object Light_Tracker id:0 copy 0
G1 X112.973 Y94.694 F10800
G1 Z.2 F720
G1 E.8 F2100
M204 S800
;TYPE:Perimeter
;WIDTH:0.419999
G1 F1200
G1 X112.971 Y94.688 E.0002
G1 X112.985 Y94.223 E.01459
G1 X113.167 Y93.727 E.01657
;WIDTH:0.419225
G1 X113.501 Y93.339 E.01602
;WIDTH:0.419999
G1 X113.941 Y93.065 E.01625
G1 X114.441 Y92.962 E.01601
G1 X114.85 Y93.006 E.0129
G1 X115.315 Y93.199 E.01579
G1 X115.696 Y93.538 E.01599
G1 X115.941 Y93.972 E.01563
G1 X116.033 Y94.485 E.01634
G1 X115.949 Y94.998 E.0163
G1 X115.701 Y95.451 E.01619
G1 X115.31 Y95.801 E.01645
G1 X114.826 Y95.997 E.01637
G1 X114.324 Y96.024 E.01576
G1 X113.825 Y95.879 E.01629
G1 X113.415 Y95.59 E.01573
G1 X113.121 Y95.183 E.01574
G1 X112.99 Y94.752 E.01412
M204 S1000
G1 X112.99 Y94.752 F10800
G1 X113.353 Y94.644
M204 S800
;TYPE:External perimeter
G1 F1200
G1 X113.344 Y94.613 E.00101
G1 X113.372 Y94.222 E.01229
G1 X113.531 Y93.859 E.01243
G1 X113.794 Y93.576 E.01211
G1 X114.141 Y93.395 E.01227
G1 X114.513 Y93.337 E.0118
G1 X114.724 Y93.361 E.00666
G1 X115.09 Y93.502 E.0123
G1 X115.388 Y93.756 E.01228
G1 X115.584 Y94.095 E.01228
G1 X115.656 Y94.48 E.01228
G1 X115.595 Y94.867 E.01228
G1 X115.409 Y95.211 E.01226
G1 X115.131 Y95.469 E.01189
G1 X114.758 Y95.626 E.01269
G1 X114.367 Y95.648 E.01228
G1 X113.991 Y95.539 E.01227
G1 X113.673 Y95.311 E.01227
G1 X113.449 Y94.99 E.01227
G1 X113.369 Y94.702 E.00937
M204 S1000
;WIPE_START
G1 F8640
G1 X113.353 Y94.644 E-.01389
G1 X113.344 Y94.613 E-.00745
G1 X113.372 Y94.222 E-.09051
G1 X113.531 Y93.859 E-.09151
G1 X113.794 Y93.576 E-.08921
G1 X114.141 Y93.395 E-.09037
G1 X114.513 Y93.337 E-.08693
G1 X114.724 Y93.361 E-.04903
G1 X115.09 Y93.502 E-.09056
G1 X115.388 Y93.756 E-.09041
G1 X115.584 Y94.095 E-.09042
G1 X115.592 Y94.136 E-.00971
;WIPE_END
G1 Z.6 F720
G1 X112.477 Y93.573 F10800
G1 Z.2 F720
G1 E.8 F2100
M204 S800
;TYPE:Perimeter
G1 F1200
G1 X112.018 Y93.627 E.01449
G1 X111.521 Y93.518 E.01595
G1 X111.084 Y93.25 E.01607
G1 X110.764 Y92.859 E.01584
G1 X110.588 Y92.382 E.01594
G1 X110.577 Y91.864 E.01625
G1 X110.74 Y91.372 E.01625
G1 X111.058 Y90.963 E.01624
G1 X111.493 Y90.682 E.01624
G1 X111.997 Y90.563 E.01624
G1 X112.403 Y90.588 E.01275
G1 X112.894 Y90.783 E.01656
G1 X113.273 Y91.109 E.01567
G1 X113.523 Y91.526 E.01524
G1 X113.629 Y92.019 E.01581
G1 X113.575 Y92.498 E.01511
G1 X113.348 Y92.971 E.01645
;WIDTH:0.418471
G1 X112.991 Y93.339 E.01601
;WIDTH:0.419999
G1 X112.536 Y93.563 E.0159
M204 S1000
G1 X112.536 Y93.563 F10800
G1 X112.384 Y93.209
M204 S800
;TYPE:External perimeter
G1 F1200
G1 X112.353 Y93.222 E.00105
G1 X111.959 Y93.243 E.01237
G1 X111.587 Y93.135 E.01215
G1 X111.269 Y92.907 E.01227
G1 X111.045 Y92.586 E.01227
G1 X110.94 Y92.208 E.0123
G1 X110.968 Y91.818 E.01226
G1 X111.124 Y91.459 E.01227
G1 X111.39 Y91.172 E.01227
G1 X111.737 Y90.99 E.01229
G1 X112.109 Y90.933 E.0118
G1 X112.32 Y90.957 E.00666
G1 X112.686 Y91.097 E.01229
G1 X112.983 Y91.352 E.01227
G1 X113.171 Y91.662 E.01137
G1 X113.251 Y92.076 E.01322
G1 X113.191 Y92.463 E.01228
G1 X112.998 Y92.814 E.01256
G1 X112.715 Y93.07 E.01197
G1 X112.439 Y93.186 E.00939
M204 S1000
;WIPE_START
G1 F8640
G1 X112.384 Y93.209 E-.01377
G1 X112.353 Y93.222 E-.00776
G1 X111.959 Y93.243 E-.0911
G1 X111.587 Y93.135 E-.08944
G1 X111.269 Y92.907 E-.09035
G1 X111.045 Y92.586 E-.09038
G1 X110.94 Y92.208 E-.09059
G1 X110.968 Y91.818 E-.09028
G1 X111.124 Y91.459 E-.09038
G1 X111.39 Y91.172 E-.09036
G1 X111.603 Y91.06 E-.05559
;WIPE_END
G1 Z.6 F720
G1 X136.956 Y94.942 F10800
G1 Z.2 F720
G1 E.8 F2100
M204 S800
;TYPE:Perimeter
G1 F1200
G1 X136.938 Y95.036 E.003
G1 X136.676 Y95.484 E.01627
G1 X136.28 Y95.818 E.01624
G1 X135.796 Y96.002 E.01624
G1 X135.311 Y96.021 E.01522
G1 X134.83 Y95.879 E.01572
G1 X134.416 Y95.585 E.01592
G1 X134.109 Y95.143 E.01687
G1 X133.973 Y94.64 E.01634
G1 X134.013 Y94.121 E.01632
G1 X134.224 Y93.646 E.0163
G1 X134.566 Y93.279 E.01573
G1 X135.032 Y93.034 E.01651
G1 X135.533 Y92.96 E.01588
G1 X135.856 Y93.006 E.01023
G1 X136.331 Y93.21 E.01621
;WIDTH:0.416068
G1 X136.708 Y93.562 E.016
;WIDTH:0.419999
G1 X136.952 Y93.99 E.01545
G1 X137.035 Y94.528 E.01707
G1 X136.967 Y94.883 E.01133
M204 S1000
G1 X136.967 Y94.883 F10800
G1 X136.606 Y94.834
M204 S800
;TYPE:External perimeter
G1 F1200
G1 X136.601 Y94.867 E.00105
G1 X136.415 Y95.211 E.01226
G1 X136.125 Y95.474 E.01228
G1 X135.764 Y95.626 E.01228
G1 X135.384 Y95.651 E.01194
G1 X134.997 Y95.539 E.01263
G1 X134.679 Y95.311 E.01227
G1 X134.454 Y94.99 E.01229
G1 X134.35 Y94.613 E.01226
G1 X134.377 Y94.222 E.01229
G1 X134.533 Y93.863 E.01227
G1 X134.8 Y93.576 E.01229
G1 X135.147 Y93.395 E.01227
G1 X135.519 Y93.337 E.0118
G1 X135.73 Y93.361 E.00666
G1 X136.095 Y93.502 E.01227
G1 X136.393 Y93.756 E.01228
G1 X136.589 Y94.095 E.01228
G1 X136.661 Y94.48 E.01228
G1 X136.615 Y94.775 E.00936
M204 S1000
;WIPE_START
G1 F8640
G1 X136.606 Y94.834 E-.01378
G1 X136.601 Y94.867 E-.00771
G1 X136.415 Y95.211 E-.0903
G1 X136.125 Y95.474 E-.0904
G1 X135.764 Y95.626 E-.09044
G1 X135.384 Y95.651 E-.08793
G1 X134.997 Y95.539 E-.09303
G1 X134.679 Y95.311 E-.09035
G1 X134.454 Y94.99 E-.09051
G1 X134.35 Y94.613 E-.0903
G1 X134.367 Y94.374 E-.05525
;WIPE_END
G1 Z.6 F720
G1 X136.861 Y93.185 F10800
G1 Z.2 F720
G1 E.8 F2100
M204 S800
;TYPE:Perimeter
;WIDTH:0.419538
G1 F1200
G1 X136.787 Y93.126 E.00296
;WIDTH:0.419999
G1 X136.516 Y92.746 E.01463
G1 X136.377 Y92.21 E.01736
G1 X136.432 Y91.677 E.0168
G1 X136.655 Y91.21 E.01623
G1 X137.02 Y90.843 E.01623
G1 X137.488 Y90.619 E.01627
G1 X138.003 Y90.563 E.01624
G1 X138.466 Y90.662 E.01485
G1 X138.9 Y90.919 E.01581
G1 X139.229 Y91.309 E.016
G1 X139.418 Y91.813 E.01688
G1 X139.427 Y92.32 E.0159
G1 X139.258 Y92.826 E.01673
G1 X138.931 Y93.238 E.01649
G1 X138.498 Y93.511 E.01605
G1 X137.962 Y93.628 E.0172
G1 X137.432 Y93.541 E.01684
G1 X137.19 Y93.447 E.00814
;WIDTH:0.419538
G1 X136.908 Y93.222 E.0113
M204 S1000
G1 X136.908 Y93.222 F10800
G1 X137.109 Y92.926
M204 S800
;TYPE:External perimeter
;WIDTH:0.419999
G1 F1200
G1 X137.083 Y92.907 E.00101
G1 X136.859 Y92.586 E.01227
G1 X136.754 Y92.208 E.0123
G1 X136.782 Y91.818 E.01226
G1 X136.938 Y91.459 E.01227
G1 X137.204 Y91.172 E.01227
G1 X137.596 Y90.983 E.01364
G1 X137.939 Y90.935 E.01086
G1 X138.309 Y91.005 E.01181
G1 X138.659 Y91.212 E.01275
G1 X138.91 Y91.513 E.01229
G1 X139.046 Y91.88 E.01227
G1 X139.052 Y92.272 E.01229
G1 X138.927 Y92.643 E.01227
G1 X138.685 Y92.951 E.01228
G1 X138.347 Y93.163 E.01251
G1 X137.867 Y93.249 E.01529
G1 X137.401 Y93.135 E.01504
G1 X137.158 Y92.961 E.00937
M204 S1000
;WIPE_START
G1 F8640
G1 X137.109 Y92.926 E-.0139
G1 X137.083 Y92.907 E-.00744
G1 X136.859 Y92.586 E-.09038
G1 X136.754 Y92.208 E-.09059
G1 X136.782 Y91.818 E-.09028
G1 X136.938 Y91.459 E-.09038
G1 X137.204 Y91.172 E-.09036
G1 X137.596 Y90.983 E-.10049
G1 X137.939 Y90.935 E-.07997
G1 X138.309 Y91.005 E-.08695
G1 X138.53 Y91.136 E-.05926
;WIPE_END
G1 Z.6 F720
G1 X136.729 Y116.411 F10800
G1 Z.2 F720
G1 E.8 F2100
M204 S800
;TYPE:Perimeter
;WIDTH:0.418475
G1 F1200
G1 X136.4 Y116.749 E.01473
;WIDTH:0.419999
G1 X135.937 Y116.977 E.01618
G1 X135.431 Y117.037 E.01598
G1 X134.931 Y116.928 E.01605
G1 X134.494 Y116.66 E.01607
G1 X134.168 Y116.26 E.01618
G1 X133.987 Y115.751 E.01694
G1 X133.991 Y115.231 E.0163
G1 X134.169 Y114.741 E.01635
G1 X134.489 Y114.349 E.01587
G1 X134.932 Y114.077 E.0163
G1 X135.441 Y113.968 E.01632
G1 X135.856 Y114.011 E.01308
G1 X136.332 Y114.214 E.01623
G1 X136.707 Y114.553 E.01585
G1 X136.958 Y115.021 E.01665
G1 X137.035 Y115.533 E.01623
G1 X136.938 Y116.042 E.01625
G1 X136.767 Y116.365 E.01146
M204 S1000
G1 X136.767 Y116.365 F10800
G1 X136.428 Y116.187
M204 S800
;TYPE:External perimeter
G1 F1200
G1 X136.408 Y116.224 E.00132
G1 X136.125 Y116.48 E.01197
G1 X135.764 Y116.632 E.01228
G1 X135.373 Y116.654 E.01228
G1 X134.997 Y116.545 E.01227
G1 X134.679 Y116.317 E.01227
G1 X134.454 Y115.996 E.01229
G1 X134.355 Y115.668 E.01074
G1 X134.377 Y115.228 E.01381
G1 X134.533 Y114.869 E.01227
G1 X134.8 Y114.582 E.01229
G1 X135.147 Y114.4 E.01229
G1 X135.519 Y114.343 E.0118
G1 X135.73 Y114.367 E.00666
G1 X136.095 Y114.507 E.01226
G1 X136.393 Y114.762 E.0123
G1 X136.589 Y115.101 E.01228
G1 X136.661 Y115.486 E.01228
G1 X136.601 Y115.872 E.01225
G1 X136.457 Y116.134 E.00937
M204 S1000
G1 X136.457 Y116.134 F10800
G1 X136.952 Y116.723
M204 S800
;TYPE:Perimeter
G1 F1200
G1 X137.351 Y116.474 E.01475
G1 X137.851 Y116.372 E.016
G1 X138.357 Y116.439 E.016
G1 X138.815 Y116.67 E.01608
G1 X139.179 Y117.047 E.01643
G1 X139.395 Y117.527 E.0165
G1 X139.436 Y118.069 E.01704
G1 X139.288 Y118.583 E.01677
G1 X138.997 Y118.99 E.01569
G1 X138.583 Y119.287 E.01598
G1 X138.026 Y119.432 E.01805
G1 X137.788 Y119.432 E.00746
G1 X137.283 Y119.313 E.01627
G1 X136.859 Y119.032 E.01595
G1 X136.552 Y118.633 E.01578
G1 X136.381 Y118.097 E.01764
G1 X136.395 Y117.632 E.01459
G1 X136.577 Y117.137 E.01654
;WIDTH:0.419227
G1 X136.903 Y116.758 E.01564
M204 S1000
G1 X136.903 Y116.758 F10800
G1 X137.182 Y117.011
M204 S800
;TYPE:External perimeter
;WIDTH:0.419998
G1 F1200
G1 X137.204 Y116.986 E.00104
G1 X137.551 Y116.804 E.01229
G1 X137.939 Y116.749 E.01229
G1 X138.323 Y116.826 E.01228
G1 X138.659 Y117.026 E.01226
G1 X138.91 Y117.327 E.01229
G1 X139.046 Y117.694 E.01227
G1 X139.052 Y118.086 E.01229
G1 X138.927 Y118.457 E.01227
G1 X138.685 Y118.765 E.01228
G1 X138.347 Y118.977 E.01251
G1 X137.867 Y119.063 E.01529
G1 X137.401 Y118.949 E.01504
G1 X137.083 Y118.721 E.01227
G1 X136.859 Y118.4 E.01227
G1 X136.754 Y118.023 E.01227
G1 X136.782 Y117.632 E.01229
G1 X136.912 Y117.31 E.01089
G1 X137.142 Y117.055 E.01077
M204 S1000
;WIPE_START
G1 F8640
G1 X137.182 Y117.011 E-.01373
G1 X137.204 Y116.986 E-.00769
G1 X137.551 Y116.804 E-.09048
G1 X137.939 Y116.749 E-.09049
G1 X138.323 Y116.826 E-.09043
G1 X138.659 Y117.026 E-.09029
G1 X138.91 Y117.327 E-.0905
G1 X139.046 Y117.694 E-.09037
G1 X139.052 Y118.086 E-.09052
G1 X138.927 Y118.457 E-.0904
G1 X138.78 Y118.645 E-.0551
;WIPE_END
G1 Z.6 F720
G1 X113.446 Y116.601 F10800
G1 Z.2 F720
G1 E.8 F2100
M204 S800
;TYPE:Perimeter
;WIDTH:0.419999
G1 F1200
G1 X113.414 Y116.577 E.00125
G1 X113.106 Y116.156 E.01636
G1 X112.967 Y115.62 E.01736
G1 X113.022 Y115.087 E.0168
G1 X113.245 Y114.619 E.01625
G1 X113.595 Y114.262 E.01568
G1 X114.045 Y114.035 E.0158
G1 X114.54 Y113.967 E.01567
G1 X114.85 Y114.011 E.00982
G1 X115.327 Y114.214 E.01625
G1 X115.709 Y114.564 E.01624
G1 X115.952 Y115.021 E.01623
G1 X116.032 Y115.516 E.01572
G1 X115.932 Y116.042 E.01679
G1 X115.67 Y116.489 E.01625
G1 X115.275 Y116.824 E.01624
G1 X114.79 Y117.007 E.01625
G1 X114.272 Y117.019 E.01625
G1 X113.824 Y116.884 E.01467
G1 X113.494 Y116.637 E.01292
M204 S1000
G1 X113.494 Y116.637 F10800
G1 X113.7 Y116.336
M204 S800
;TYPE:External perimeter
G1 F1200
G1 X113.673 Y116.317 E.00104
G1 X113.449 Y115.996 E.01227
G1 X113.344 Y115.618 E.0123
G1 X113.372 Y115.228 E.01226
G1 X113.528 Y114.869 E.01227
G1 X113.794 Y114.582 E.01227
G1 X114.141 Y114.4 E.01229
G1 X114.513 Y114.343 E.0118
G1 X114.724 Y114.367 E.00666
G1 X115.09 Y114.507 E.01229
G1 X115.388 Y114.762 E.0123
G1 X115.584 Y115.101 E.01228
G1 X115.656 Y115.486 E.01228
G1 X115.595 Y115.872 E.01225
G1 X115.409 Y116.217 E.01229
G1 X115.119 Y116.48 E.01228
G1 X114.758 Y116.632 E.01228
G1 X114.367 Y116.654 E.01228
G1 X114.006 Y116.554 E.01175
G1 X113.748 Y116.371 E.00992
M204 S1000
G1 X113.748 Y116.371 F10800
G1 X113.042 Y116.732
M204 S800
;TYPE:Perimeter
;WIDTH:0.416068
G1 F1200
G1 X113.298 Y116.972 E.01089
;WIDTH:0.419999
G1 X113.535 Y117.376 E.01469
G1 X113.629 Y117.896 E.01657
G1 X113.542 Y118.416 E.01653
G1 X113.294 Y118.865 E.01608
G1 X112.903 Y119.212 E.01639
G1 X112.435 Y119.405 E.01587
G1 X111.915 Y119.433 E.01633
G1 X111.418 Y119.287 E.01624
G1 X111.003 Y118.99 E.016
G1 X110.73 Y118.619 E.01444
G1 X110.569 Y118.111 E.01671
G1 X110.586 Y117.603 E.01594
G1 X110.781 Y117.105 E.01677
G1 X111.13 Y116.708 E.01657
G1 X111.584 Y116.456 E.01628
G1 X112.123 Y116.37 E.01711
G1 X112.446 Y116.415 E.01023
G1 X112.921 Y116.62 E.01622
;WIDTH:0.416068
G1 X112.998 Y116.691 E.00325
M204 S1000
G1 X112.998 Y116.691 F10800
G1 X112.811 Y117.018
M204 S800
;TYPE:External perimeter
;WIDTH:0.419999
G1 F1200
G1 X112.983 Y117.166 E.00711
G1 X113.179 Y117.505 E.01228
G1 X113.251 Y117.89 E.01228
G1 X113.191 Y118.277 E.01228
G1 X113.005 Y118.621 E.01226
G1 X112.715 Y118.884 E.01228
G1 X112.353 Y119.036 E.01231
G1 X111.959 Y119.057 E.01237
G1 X111.587 Y118.949 E.01215
G1 X111.269 Y118.721 E.01227
G1 X111.06 Y118.436 E.01108
G1 X110.94 Y118.023 E.01348
